dist/icons/svgs/check-outline.svg

<svg xmlns="http://www.w3.org/2000/svg" width="24" height="24" fill="currentcolor" class="icon-check-outline" viewBox="0 0 24 24">
  <path d="M20.4766 6.02344C20.8281 6.41406 20.8281 7 20.4766 7.35156L10.1641 17.6641C9.77344 18.0547 9.1875 18.0547 8.83594 17.6641L3.52344 12.3516C3.13281 12 3.13281 11.4141 3.52344 11.0625C3.875 10.6719 4.46094 10.6719 4.8125 11.0625L9.46094 15.7109L19.1484 6.02344C19.5 5.67188 20.0859 5.67188 20.4375 6.02344H20.4766Z"/>
</svg>

<svg xmlns="http://www.w3.org/2000/svg" width="24" height="24" fill="currentColor" class="icon-check-outline" viewBox="0 0 24 24">
  <path d="M20.477 6.023c.351.391.351.977 0 1.329L10.164 17.664c-.39.39-.976.39-1.328 0l-5.313-5.312a.856.856 0 0 1 0-1.29.856.856 0 0 1 1.29 0l4.648 4.649 9.687-9.688a.92.92 0 0 1 1.29 0z"/>
</svg>
